X:10976
T: Schottisch  CF (st09051)
S: Hanny Christen. Bd.X Unterwalden II. Glarus.
S: Das Repertoire der B\"abi-Musig, Alpnach. S.62-108. S.67 (st09051) orig. C,F
S: \"Uberliefert durch Josef B\"abi, Alpnach, 1880
%%MIDI program 21
R:shottishe
M:2/4
L:1/8
O:Switzerland
K:C %%MIDI gchordon
"tr"c |: "G7"BA G"tr"f | "C"ed cc' | "G7"b/d/g/b/ a/d/f/a/ | "C"g/c/e/a/ g"tr"c | "G7"BA G"tr"f | "C"ed cc' |  "G"b/d/g/b/ "D7"a/d/^f/a/ |1 
"G"gg gc :|2 "G"gg gd/e/ |:"G7"f/G/B/d/ gb | df f"tr"f | "C"e/G/c/e/ gc' | eg ge' | "G7"d'd c'd | bd ad |1 "C"gc eG | 
ce ed/e/ :|2 gd/e/ f/G/A/B/ | "C"cc' c'z |: [K:F] "F"Ac a>g | fe dc | "C7"AB g>f | e2z2 | AB g>f | ed cB | 
"F"Ac a/e/f/d/ | c2A2 | Ac a>g | fe dc | "Bb"B2d^c/d/ | b2zg | "C7"ec/c/ cg | "F"fc/c/ ca | "C7"gc de | "F"ff fz :|    
% st09051

